X: 2
T: The Destitution
R: reel
M: 4/4
L: 1/8
K: Emin
|: E2 BE cEBE | dcBc ABGA | (3EEE BE cEBc | AGFG AdBG || D~E3 cEBE | dcBc ABGF | EB{d}BA GBFB |1 AGFA BEED :||2 AGFA BEEA |||: Bede bege | Bede fg a2 | Bede bege | BcBA GEEA || Bede bege | Bede fg a2 | bgaf gfed |1 BdAc BEEA :||2 edBA GAFG ||


Tune 673	Setting 13720

